202404-ahaslides-april/assets/images/peo-3.svg

<svg width="215" height="151" viewBox="0 0 215 151" fill="none" xmlns="http://www.w3.org/2000/svg">
<rect x="35" width="180" height="150" fill="#FFD07A"/>
<mask id="mask0_459_2191" style="mask-type:alpha" maskUnits="userSpaceOnUse" x="0" y="16" width="203" height="135">
<path d="M202.28 16H0V150.186H202.28V16Z" fill="#F4E7D0"/>
</mask>
<g mask="url(#mask0_459_2191)">
<path d="M161.946 119.208C159.943 131.365 152.994 147.598 147.927 158.332C144.762 165.082 142.349 169.648 142.349 169.648H101.873C100.581 167.876 99.099 163.71 97.6169 158.332C94.2467 145.481 91.7938 132.407 90.2768 119.208C89.7461 114.091 89.6359 110.196 90.1266 108.634C92.1894 102.105 113.158 93.1623 119.567 91.9606C125.976 90.7589 161.285 93.3325 162.487 111.377C162.607 114 162.426 116.627 161.946 119.208Z" fill="#D2916E"/>
<path d="M161.947 119.208C159.944 131.365 152.994 147.597 147.927 158.332H97.6175C94.2472 145.481 91.7943 132.407 90.2773 119.208H161.947Z" fill="#3A4352"/>
<path d="M108.441 143.522C108.441 143.522 108.201 157.541 110.795 158.012C113.388 158.483 116.092 142.581 115.511 119.258" stroke="#4F9AF2" stroke-width="1.22329" stroke-miterlimit="10"/>
<path d="M117.043 158.202C117.043 158.202 117.153 135.35 121.159 135.23C125.164 135.11 124.343 158.542 124.343 158.542" stroke="#4F9AF2" stroke-width="1.22329" stroke-miterlimit="10"/>
<path d="M126.936 118.627C126.936 118.627 125.754 146.305 130.231 147.247C134.707 148.188 135.177 118.977 135.177 118.977" stroke="#4F9AF2" stroke-width="1.22329" stroke-miterlimit="10"/>
<path d="M135.899 158.543C135.899 158.543 135.799 139.136 139.434 137.965C143.069 136.793 143.269 158.543 143.269 158.543" stroke="#4F9AF2" stroke-width="1.22329" stroke-miterlimit="10"/>
<path d="M93.529 51.7948C93.529 51.7948 83.5151 38.917 93.9996 29.9146C104.484 20.9121 124.041 19.1196 132.743 21.3727C141.445 23.6259 145.2 28.6528 148.565 41.5006C151.93 54.3484 150.398 52.6761 155.465 59.3553C158.453 63.2619 160.889 67.5615 162.705 72.133L146.682 79.6935L140.915 73.4949L142.397 81.7864L107.068 87.5744L96.7935 84.6904L96.0725 78.9324L94.4402 83.679L85.4277 79.7836C86.675 73.6067 89.5952 67.8911 93.8694 63.2607C100.769 56.0808 93.529 51.7948 93.529 51.7948Z" fill="#573539"/>
<path d="M98.0157 32.2568C98.0157 32.2568 95.4722 32.6674 94.9114 38.856C94.3507 45.0445 93.5295 51.7938 93.5295 51.7938C93.5295 51.7938 89.1735 55.6592 89.524 56.3702C89.8745 57.0812 94.0102 60.3157 94.0102 60.3157C94.0102 60.3157 93.1189 71.4711 95.5823 73.564C97.7178 75.3622 100.36 76.4507 103.143 76.6783C106.26 76.8044 109.381 76.6333 112.466 76.1676C115.361 75.3335 117.989 73.7573 120.088 71.5951C122.187 69.4329 123.685 66.7597 124.432 63.8405C124.432 63.8405 132.914 60.0252 131.292 52.7352C129.669 45.4451 118.704 50.3919 118.704 50.3919C118.704 50.3919 113.447 44.6339 108.1 41.5597C102.752 38.4854 98.4563 35.3711 98.0157 32.2568Z" fill="#D2916E"/>
<path d="M109.052 70.5998C109.052 70.5998 111.696 75.106 111.535 77.98C111.445 79.422 110.904 82.6765 110.394 85.5305C109.897 88.1899 110.39 90.9391 111.779 93.2608C113.167 95.5826 115.356 97.317 117.934 98.1379C119.305 98.5468 120.709 98.835 122.13 98.9991C124.129 99.2422 126.152 99.1984 128.138 98.8689C129.744 98.5793 131.267 97.9405 132.599 96.9976C133.931 96.0548 135.04 94.831 135.847 93.4126C136.654 91.9942 137.14 90.4159 137.27 88.7892C137.4 87.1625 137.171 85.527 136.6 83.9984L128.379 61.0967C127.242 57.9165 124.995 55.2536 122.051 53.5978C119.107 51.942 115.665 51.4045 112.356 52.0842L112.066 52.1443C102.303 54.2772 104.676 62.5687 109.052 70.5998Z" fill="#D2916E"/>
<path d="M97.205 42.3807C97.205 42.3807 96.5441 44.043 97.9761 44.0931C99.4081 44.1431 105.096 43.2219 105.326 42.8614C105.557 42.5009 103.804 40.2878 97.205 42.3807Z" fill="#573539"/>
<path d="M120.828 55.6608L127.297 52.7969" stroke="#282E3E" stroke-width="1.88098" stroke-linecap="round" stroke-linejoin="round"/>
<path d="M97.7559 63.6728C97.7559 63.6728 101.191 64.1935 102.202 60.228" stroke="#282E3E" stroke-width="1.88098" stroke-linecap="round" stroke-linejoin="round"/>
<path d="M97.6348 51.725C97.6348 51.725 99.8078 47.7195 105.886 50.5033" stroke="#282E3E" stroke-width="1.88098" stroke-linecap="round" stroke-linejoin="round"/>
<path d="M101.128 51.5843C101.216 50.7649 100.792 50.0479 100.181 49.9829C99.5707 49.9179 99.0051 50.5294 98.9178 51.3489C98.8305 52.1683 99.2546 52.8852 99.865 52.9502C100.475 53.0153 101.041 52.4037 101.128 51.5843Z" fill="#2F3545"/>
<path d="M120.346 106.53L101.87 165.001H93.7893L83.8655 116.534C83.5203 114.853 83.6684 113.108 84.292 111.509C84.9156 109.91 85.9881 108.525 87.3804 107.522C92.9877 103.451 98.8962 99.8121 105.055 96.6367L120.346 106.53Z" fill="#FE663F"/>
<path d="M129.43 106.531L147.905 165.002H155.976L165.91 116.535C166.611 113.1 165.159 105.579 162.315 103.517C158.19 100.512 152.802 98.8601 145.722 95.3052L129.43 106.531Z" fill="#FE663F"/>
<path d="M105.958 105.008C105.958 105.008 91.3876 95.1347 76.1665 129.042C60.9454 162.949 53.9357 176.658 64.8308 184.909C76.547 193.771 94.3116 161.727 96.8752 156.6C99.4387 151.473 118.565 117.816 105.958 105.008Z" fill="#D2916E"/>
<path d="M56.7383 148.458L89.8841 172.742C89.8841 172.742 109.752 137.603 113.567 121.261C117.382 104.918 101.5 93.9227 85.458 109.044C69.4158 124.165 56.7383 148.458 56.7383 148.458Z" fill="#FE663F"/>
<path d="M96.0141 29.3032C96.0141 29.3032 84.7986 36.9438 86.0003 47.218" stroke="#573539" stroke-width="1.22329" stroke-miterlimit="10"/>
<path d="M149.768 47.0283C149.768 47.0283 150.058 51.1841 155.846 54.4386C161.634 57.6931 166.611 63.5111 166.961 68.0875" stroke="#573539" stroke-width="1.22329" stroke-miterlimit="10"/>
<path d="M124.812 94.7339L120.346 106.53C120.346 106.53 109.841 104.247 105.055 96.6466C105.055 96.6466 106.056 87.584 110.743 85.0605C110.743 85.0605 111.223 93.5223 124.812 94.7339Z" fill="#FE663F"/>
<path d="M124.812 94.734L129.249 106.53C129.249 106.53 140.554 103.106 145.331 95.5151C145.331 95.5151 141.325 87.0133 136.619 84.4998C136.659 84.4397 138.421 93.5223 124.812 94.734Z" fill="#FE663F"/>
<path d="M93.7902 165.001L85.6289 125.126" stroke="#282E3E" stroke-width="1.88098" stroke-linecap="round" stroke-linejoin="round"/>
<path d="M105.055 96.6465C105.055 96.6465 108.69 103.536 120.346 106.53" stroke="#282E3E" stroke-width="1.88098" stroke-linecap="round" stroke-linejoin="round"/>
<path d="M129.25 106.529C129.25 106.529 141.567 102.644 145.332 95.5142" stroke="#282E3E" stroke-width="1.88098" stroke-linecap="round" stroke-linejoin="round"/>
<path d="M110.652 77.1511C112.252 76.7988 113.793 76.2188 115.229 75.4287" stroke="#282E3E" stroke-width="1.88098" stroke-linecap="round" stroke-linejoin="round"/>
<path d="M76.5679 182.896C76.5679 182.896 85.9409 177.489 76.5679 164.11C67.195 150.732 39.1261 114.612 39.1261 114.612C39.1261 114.612 35.9517 110.306 29.1122 114.612C22.2728 118.918 39.8571 159.064 47.1372 168.086C58.4829 182.105 66.2737 191.669 76.5679 182.896Z" fill="#D2916E"/>
<path d="M49.5392 127.7C50.5686 128.131 51.4371 128.873 52.0226 129.823C54.2557 133.538 51.1214 139.527 45.0129 143.192C38.9045 146.857 32.1651 146.807 29.932 143.091C28.6002 140.868 28.8405 138.345 30.8133 135.491" stroke="white" stroke-width="1.22329" stroke-linecap="round" stroke-linejoin="round"/>
<path d="M51.9523 129.573C55.7175 131.736 55.3971 139.357 51.2413 146.597C47.0856 153.837 40.6667 157.953 36.9015 155.8C34.2278 154.257 33.6169 149.951 34.9788 144.985" stroke="white" stroke-width="1.22329" stroke-linecap="round" stroke-linejoin="round"/>
<path d="M124.393 63.843C124.393 63.843 125.324 64.3638 125.895 72.3748C126.187 77.0571 127.366 81.6412 129.369 85.8835L142.387 81.7879L140.144 69.0702L129.189 60.228C127.939 61.8371 126.284 63.0848 124.393 63.843Z" fill="#573539"/>
<path d="M13.1581 93.1822C12.2568 92.3611 11.2754 93.3324 11.2754 93.3324C11.0147 93.5673 10.8531 93.8925 10.8233 94.2421C10.7936 94.5917 10.898 94.9395 11.1152 95.2151L22.501 107.582C22.6928 107.786 22.9232 107.949 23.179 108.063C23.4348 108.177 23.7106 108.238 23.9904 108.244C24.2702 108.249 24.5483 108.199 24.8084 108.096C25.0685 107.992 25.3054 107.838 25.5052 107.642C25.7024 107.443 25.8576 107.206 25.9616 106.946C26.0656 106.686 26.1164 106.408 26.1108 106.127C26.1052 105.847 26.0434 105.571 25.929 105.315C25.8147 105.059 25.6501 104.829 25.4451 104.638C21.9703 101.364 13.859 93.8331 13.1581 93.1822Z" fill="#D2916E"/>
<path d="M17.6662 91.2696C16.765 90.4485 15.7836 91.4198 15.7836 91.4198C15.5264 91.6573 15.3682 91.9829 15.3404 92.3318C15.3125 92.6807 15.4171 93.0272 15.6334 93.3025C16.2742 94.0034 22.4829 100.853 25.7273 104.318C25.9169 104.525 26.1464 104.691 26.402 104.807C26.6575 104.923 26.9339 104.986 27.2145 104.993C27.4951 104.999 27.7741 104.949 28.0348 104.845C28.2955 104.741 28.5324 104.586 28.7315 104.388C28.9326 104.193 29.0924 103.959 29.2016 103.701C29.3107 103.443 29.367 103.166 29.367 102.886C29.367 102.606 29.3107 102.328 29.2016 102.07C29.0924 101.812 28.9326 101.579 28.7315 101.384C25.1866 98.1592 18.3672 91.9205 17.6662 91.2696Z" fill="#D2916E"/>
<path d="M35.4489 92.9818C35.3769 92.8 35.2598 92.6395 35.1086 92.5156C34.9575 92.3916 34.7772 92.3081 34.5848 92.2731C34.3925 92.238 34.1944 92.2525 34.0092 92.3151C33.824 92.3778 33.6578 92.4866 33.5262 92.6313C32.667 93.7366 32.2208 95.1073 32.2646 96.5066C32.1002 98.9106 31.7655 101.3 31.2632 103.657C31.2632 103.657 28.8398 109.845 31.9641 112.919C35.0884 115.994 37.9724 114.922 38.383 113.7C40.0553 108.914 35.5891 93.4724 35.4289 93.0118L35.4489 92.9818Z" fill="#D2916E"/>
<path d="M17.9453 113.26C17.9453 113.26 25.0552 119.268 29.5914 120.67C34.1277 122.072 39.9057 115.373 38.1333 111.498C36.3608 107.622 31.1837 100.042 28.1194 101.894C25.0552 103.747 18.1756 108.033 17.9453 113.26Z" fill="#D2916E"/>
<path d="M37.4424 110.205L23.5632 115.683C23.1786 115.837 22.7507 115.847 22.3598 115.708C21.969 115.57 21.642 115.294 21.4403 114.932L8.35217 91.8997C8.23219 91.6853 8.15943 91.4477 8.13886 91.2028C8.11829 90.958 8.15034 90.7116 8.23286 90.4802C8.31538 90.2487 8.44647 90.0376 8.61731 89.861C8.78814 89.6844 8.9948 89.5465 9.22337 89.4563L23.1026 83.9487C23.4874 83.7961 23.9145 83.7881 24.3048 83.9262C24.6952 84.0642 25.0222 84.3391 25.2255 84.6997L38.3136 107.732C38.4389 107.947 38.5159 108.187 38.5393 108.436C38.5627 108.684 38.532 108.934 38.4491 109.169C38.3663 109.405 38.2334 109.619 38.0595 109.798C37.8857 109.977 37.6752 110.116 37.4424 110.205Z" fill="#3A4352"/>
<path d="M34.9184 106.841L22.4913 111.737L11.7363 92.7911L24.1736 87.8843L34.9184 106.841Z" fill="url(#paint0_linear_459_2191)"/>
<path d="M28.841 113.701C29.1533 113.701 29.4542 113.583 29.6844 113.372C29.9146 113.161 30.0575 112.871 30.0851 112.56C30.1127 112.249 30.023 111.939 29.8336 111.69C29.6441 111.442 29.3687 111.273 29.0613 111.218C28.0599 111.098 23.5036 110.317 18.757 109.736C18.4979 109.688 18.232 109.692 17.9744 109.747C17.7168 109.802 17.4727 109.908 17.2559 110.058C17.0392 110.207 16.8541 110.399 16.7113 110.62C16.5686 110.841 16.4708 111.089 16.4238 111.348C16.4238 111.879 16.6348 112.389 17.0104 112.764C17.386 113.14 17.8954 113.351 18.4266 113.351C23.2132 113.611 27.8897 113.651 28.841 113.701Z" fill="#D2916E"/>
<path d="M26.5564 109.655C27.7781 109.775 27.9683 108.414 27.9683 108.414C27.9683 108.414 28.1686 107.042 26.9669 106.811C26.0256 106.641 20.6882 105.469 15.9517 104.608C15.6742 104.557 15.3893 104.562 15.1139 104.624C14.8385 104.685 14.5784 104.802 14.3492 104.966C14.12 105.131 13.9265 105.34 13.7803 105.582C13.6341 105.823 13.5381 106.091 13.4983 106.371C13.4577 106.65 13.4741 106.936 13.5467 107.209C13.6192 107.482 13.7464 107.738 13.9204 107.96C14.0945 108.183 14.3119 108.368 14.5594 108.505C14.807 108.641 15.0797 108.726 15.3609 108.754C20.1475 109.245 25.6051 109.565 26.5564 109.655Z" fill="#D2916E"/>
<path d="M60.293 142.139L68.0436 152.403" stroke="#282E3E" stroke-width="1.88098" stroke-linecap="round" stroke-linejoin="round"/>
<path d="M148.275 105.068C148.275 105.068 164.808 91.7398 181.781 125.336C198.755 158.933 204.813 169.217 194.169 178.079C182.713 187.602 163.246 155.969 160.382 150.892C157.518 145.815 136.048 118.627 148.275 105.068Z" fill="#D2916E"/>
<path d="M200.638 146.136L164.298 162.969C164.298 162.969 146.503 137.594 141.887 121.222C137.27 104.849 152.842 92.9725 169.785 107.543C186.729 122.113 200.638 146.136 200.638 146.136Z" fill="#FE663F"/>
</g>
<defs>
<linearGradient id="paint0_linear_459_2191" x1="24.5841" y1="118.887" x2="22.5313" y2="87.6239" gradientUnits="userSpaceOnUse">
<stop stop-color="#F5FBFF"/>
<stop offset="1" stop-color="#D3E6FD"/>
</linearGradient>
</defs>
</svg>

<svg xmlns="http://www.w3.org/2000/svg" width="215" height="151" fill="none" viewBox="0 0 215 151">
  <path fill="#FFD07A" d="M35 0h180v150H35z"/>
  <mask id="a" width="203" height="135" x="0" y="16" maskUnits="userSpaceOnUse" style="mask-type:alpha">
    <path fill="#F4E7D0" d="M202.28 16H0v134.186h202.28V16Z"/>
  </mask>
  <g mask="url(#a)">
    <path fill="#D2916E" d="M161.946 119.208c-2.003 12.157-8.952 28.39-14.019 39.124-3.165 6.75-5.578 11.316-5.578 11.316h-40.476c-1.292-1.772-2.774-5.938-4.256-11.316a280.472 280.472 0 0 1-7.34-39.124c-.53-5.117-.641-9.012-.15-10.574 2.062-6.529 23.031-15.472 29.44-16.673 6.409-1.202 41.718 1.371 42.92 19.416.12 2.623-.061 5.25-.541 7.831Z"/>
    <path fill="#3A4352" d="M161.947 119.208c-2.003 12.157-8.953 28.389-14.02 39.124h-50.31a280.457 280.457 0 0 1-7.34-39.124h71.67Z"/>
    <path stroke="#4F9AF2" stroke-miterlimit="10" stroke-width="1.223" d="M108.441 143.522s-.24 14.019 2.354 14.49c2.593.471 5.297-15.431 4.716-38.754m1.532 38.944s.11-22.852 4.116-22.972c4.005-.12 3.184 23.312 3.184 23.312m2.593-39.915s-1.182 27.678 3.295 28.62c4.476.941 4.946-28.27 4.946-28.27m.722 39.566s-.1-19.407 3.535-20.578c3.635-1.172 3.835 20.578 3.835 20.578"/>
    <path fill="#573539" d="M93.529 51.795s-10.014-12.878.47-21.88c10.485-9.003 30.042-10.795 38.744-8.542 8.702 2.253 12.457 7.28 15.822 20.128 3.365 12.847 1.833 11.175 6.9 17.854a53.609 53.609 0 0 1 7.24 12.778l-16.023 7.56-5.767-6.198 1.482 8.291-35.329 5.788-10.275-2.884-.72-5.758-1.633 4.747-9.012-3.895a34.398 34.398 0 0 1 8.441-16.523c6.9-7.18-.34-11.466-.34-11.466Z"/>
    <path fill="#D2916E" d="M98.016 32.257s-2.544.41-3.105 6.599c-.56 6.188-1.382 12.938-1.382 12.938s-4.355 3.865-4.005 4.576c.35.711 4.486 3.946 4.486 3.946s-.891 11.155 1.572 13.248a13.438 13.438 0 0 0 7.561 3.114 49.143 49.143 0 0 0 9.323-.51 17.298 17.298 0 0 0 11.966-12.328s8.482-3.815 6.86-11.105c-1.623-7.29-12.588-2.343-12.588-2.343s-5.257-5.758-10.604-8.832c-5.348-3.075-9.644-6.189-10.084-9.303Z"/>
    <path fill="#D2916E" d="M109.052 70.6s2.644 4.506 2.483 7.38c-.09 1.442-.631 4.697-1.141 7.55a11.091 11.091 0 0 0 7.54 12.607c1.371.41 2.775.698 4.196.862 1.999.243 4.022.2 6.008-.13a11.144 11.144 0 0 0 8.462-14.87l-8.221-22.902a14.018 14.018 0 0 0-16.023-9.013l-.29.06c-9.763 2.133-7.39 10.425-3.014 18.456Z"/>
    <path fill="#573539" d="M97.205 42.38s-.66 1.663.771 1.713c1.432.05 7.12-.871 7.35-1.232.231-.36-1.522-2.573-8.121-.48Z"/>
    <path stroke="#282E3E" stroke-linecap="round" stroke-linejoin="round" stroke-width="1.881" d="m120.828 55.66 6.469-2.863M97.756 63.673s3.435.52 4.446-3.445m-4.567-8.503s2.173-4.006 8.251-1.222"/>
    <path fill="#2F3545" d="M101.128 51.584c.088-.82-.336-1.536-.947-1.601-.61-.065-1.176.546-1.263 1.366-.088.82.337 1.536.947 1.601.61.065 1.176-.546 1.263-1.366Z"/>
    <path fill="#FE663F" d="m120.346 106.53-18.476 58.471h-8.08l-9.925-48.467a8.902 8.902 0 0 1 3.515-9.012 136.753 136.753 0 0 1 17.675-10.885l15.291 9.893Zm9.084.001 18.475 58.471h8.071l9.934-48.467c.701-3.435-.751-10.956-3.595-13.018-4.125-3.005-9.513-4.657-16.593-8.212l-16.292 11.226Z"/>
    <path fill="#D2916E" d="M105.958 105.008s-14.57-9.873-29.791 24.034c-15.222 33.907-22.231 47.616-11.336 55.867 11.716 8.862 29.48-23.182 32.044-28.309 2.564-5.127 21.69-38.784 9.083-51.592Z"/>
    <path fill="#FE663F" d="m56.738 148.458 33.146 24.284s19.868-35.139 23.683-51.481c3.815-16.343-12.067-27.338-28.109-12.217s-28.72 39.414-28.72 39.414Z"/>
    <path stroke="#573539" stroke-miterlimit="10" stroke-width="1.223" d="M96.014 29.303S84.8 36.943 86 47.218m63.768-.19s.29 4.156 6.078 7.41c5.788 3.255 10.765 9.073 11.115 13.65"/>
    <path fill="#FE663F" d="m124.812 94.734-4.466 11.796s-10.505-2.283-15.291-9.883c0 0 1.001-9.063 5.688-11.587 0 0 .48 8.462 14.069 9.674Z"/>
    <path fill="#FE663F" d="m124.812 94.734 4.437 11.796s11.305-3.424 16.082-11.015c0 0-4.006-8.502-8.712-11.015.04-.06 1.802 9.022-11.807 10.234Z"/>
    <path stroke="#282E3E" stroke-linecap="round" stroke-linejoin="round" stroke-width="1.881" d="m93.79 165.001-8.161-39.875m19.426-28.479s3.635 6.889 15.291 9.883m8.904-.001s12.317-3.885 16.082-11.015m-34.68-18.363a17.14 17.14 0 0 0 4.577-1.722"/>
    <path fill="#D2916E" d="M76.568 182.896s9.373-5.407 0-18.786c-9.373-13.378-37.442-49.498-37.442-49.498s-3.174-4.306-10.014 0 10.745 44.452 18.025 53.474c11.346 14.019 19.137 23.583 29.43 14.81Z"/>
    <path stroke="#fff" stroke-linecap="round" stroke-linejoin="round" stroke-width="1.223" d="M49.54 127.7a5.338 5.338 0 0 1 2.483 2.123c2.233 3.715-.902 9.704-7.01 13.369-6.108 3.665-12.848 3.615-15.081-.101-1.332-2.223-1.091-4.746.881-7.6"/>
    <path stroke="#fff" stroke-linecap="round" stroke-linejoin="round" stroke-width="1.223" d="M51.952 129.573c3.766 2.163 3.445 9.784-.71 17.024-4.156 7.24-10.575 11.356-14.34 9.203-2.674-1.543-3.285-5.849-1.923-10.815"/>
    <path fill="#573539" d="M124.393 63.843s.931.52 1.502 8.532a37.04 37.04 0 0 0 3.474 13.508l13.018-4.095-2.243-12.718-10.955-8.842a11.486 11.486 0 0 1-4.796 3.615Z"/>
    <path fill="#D2916E" d="M13.158 93.182c-.901-.82-1.883.15-1.883.15a1.383 1.383 0 0 0-.16 1.883l11.386 12.367a2.107 2.107 0 0 0 2.307.514 2.12 2.12 0 0 0 .697-.454 2.094 2.094 0 0 0-.06-3.004c-3.475-3.274-11.586-10.805-12.287-11.456Zm4.508-1.912c-.901-.822-1.882.15-1.882.15a1.392 1.392 0 0 0-.15 1.882c.64.701 6.849 7.551 10.093 11.016a2.08 2.08 0 0 0 2.308.527 2.08 2.08 0 0 0 .697-.457 2.094 2.094 0 0 0 0-3.004A3817.358 3817.358 0 0 1 17.666 91.27Zm17.783 1.712a1.15 1.15 0 0 0-1.923-.35 6.008 6.008 0 0 0-1.261 3.875 51 51 0 0 1-1.002 7.15s-2.423 6.188.701 9.262c3.124 3.075 6.008 2.003 6.419.781 1.672-4.786-2.794-20.228-2.954-20.688l.02-.03Z"/>
    <path fill="#D2916E" d="M17.945 113.26s7.11 6.008 11.646 7.41c4.537 1.402 10.315-5.297 8.542-9.172-1.772-3.876-6.95-11.456-10.014-9.604-3.064 1.853-9.943 6.139-10.174 11.366Z"/>
    <path fill="#3A4352" d="m37.442 110.205-13.879 5.478a1.703 1.703 0 0 1-2.123-.751L8.352 91.9a1.722 1.722 0 0 1 .871-2.444l13.88-5.507a1.712 1.712 0 0 1 2.122.75l13.089 23.033a1.716 1.716 0 0 1 .135 1.437 1.718 1.718 0 0 1-1.007 1.036Z"/>
    <path fill="url(#b)" d="m34.918 106.841-12.427 4.896-10.755-18.946 12.438-4.907 10.744 18.957Z"/>
    <path fill="#D2916E" d="M28.841 113.701a1.25 1.25 0 0 0 1.244-1.141 1.254 1.254 0 0 0-1.024-1.342c-1.001-.12-5.557-.901-10.304-1.482a2.002 2.002 0 0 0-2.333 1.612 2.002 2.002 0 0 0 2.003 2.003c4.786.26 9.463.3 10.414.35Zm-2.285-4.046c1.222.12 1.412-1.241 1.412-1.241s.2-1.372-1.001-1.603c-.941-.17-6.279-1.342-11.015-2.203a2.092 2.092 0 0 0-2.454 1.763 2.093 2.093 0 0 0 1.863 2.383c4.787.491 10.244.811 11.195.901Z"/>
    <path stroke="#282E3E" stroke-linecap="round" stroke-linejoin="round" stroke-width="1.881" d="m60.293 142.139 7.75 10.264"/>
    <path fill="#D2916E" d="M148.275 105.068s16.533-13.328 33.506 20.268c16.974 33.597 23.032 43.881 12.388 52.743-11.456 9.523-30.923-22.11-33.787-27.187-2.864-5.077-24.334-32.265-12.107-45.824Z"/>
    <path fill="#FE663F" d="m200.638 146.136-36.34 16.833s-17.795-25.375-22.411-41.747c-4.617-16.373 10.955-28.25 27.898-13.679 16.944 14.57 30.853 38.593 30.853 38.593Z"/>
  </g>
  <defs>
    <linearGradient id="b" x1="24.584" x2="22.531" y1="118.887" y2="87.624" gradientUnits="userSpaceOnUse">
      <stop stop-color="#F5FBFF"/>
      <stop offset="1" stop-color="#D3E6FD"/>
    </linearGradient>
  </defs>
</svg>
